assets/images/logo-booking-light.svg

<svg height="84" viewBox="0 0 500 84" width="500" xmlns="http://www.w3.org/2000/svg"><g fill="#fff" fill-rule="evenodd"><path d="m196.059 7.5717c.008-1.49755.46-2.95912 1.299-4.20029.837-1.24118 2.025-2.20636 3.41-2.77376 1.385-.5673977 2.909-.711594 4.377-.414397 1.467.297197 2.814 1.022467 3.87 2.084317 1.057 1.06184 1.775 2.41269 2.064 3.88207.289 1.46941.136 2.99153-.439 4.37436-.575 1.3828-1.547 2.5643-2.792 3.3955-1.246.8311-2.71 1.2747-4.208 1.2747-2.015-.011-3.942-.8189-5.364-2.2472-1.42-1.4283-2.217-3.36088-2.217-5.3753z"/><path d="m315.939 58.262c.009-1.4977.461-2.9592 1.299-4.2004s2.025-2.2063 3.411-2.7737c1.385-.5675 2.908-.7117 4.377-.4145 1.467.2972 2.814 1.0226 3.87 2.0844 1.057 1.0618 1.774 2.4126 2.063 3.8821.289 1.4694.137 2.9915-.438 4.3742-.575 1.3829-1.547 2.5645-2.793 3.3955-1.245.8313-2.709 1.2748-4.207 1.2748-2.015-.011-3.942-.8189-5.364-2.2472-1.42-1.4284-2.218-3.3608-2.218-5.3752z"/><path d="m71.3923 55.0139c-1.5663-.0387-3.1078-.3993-4.5286-1.0596-1.4205-.6603-2.6903-1.606-3.7297-2.7783-1.0394-1.1722-1.8262-2.5458-2.3116-4.0353-.4854-1.4897-.659-3.0633-.5098-4.6228-.1658-1.5623-.001-3.142.4834-4.6365.4845-1.4947 1.2777-2.8706 2.3285-4.0386 1.0507-1.1681 2.3354-2.1021 3.7705-2.7415 1.435-.6394 2.9887-.9698 4.5598-.9698s3.1246.3304 4.5598.9698c1.435.6394 2.7196 1.5734 3.7704 2.7415 1.0507 1.168 1.844 2.5439 2.3284 4.0386.4846 1.4945.6492 3.0742.4836 4.6365.1628 1.5724-.0053 3.1613-.4935 4.6649-.4881 1.5035-1.2854 2.8883-2.3407 4.0652-1.0554 1.1769-2.3452 2.1199-3.7869 2.7686-1.4416.6485-3.0028.9882-4.5836.9973zm0-36.405c-3.1548-.1158-6.2998.4183-9.2395 1.5688-2.9397 1.1507-5.6116 2.8932-7.8498 5.1196-2.2381 2.2264-3.9947 4.8892-5.1607 7.8229-1.1659 2.9336-1.7164 6.0758-1.6173 9.2311-.0991 3.1553.4514 6.2973 1.6173 9.2311 1.166 2.9337 2.9226 5.5965 5.1607 7.8229 2.2382 2.2264 4.9101 3.9689 7.8498 5.1194 2.9397 1.1507 6.0847 1.6846 9.2395 1.5689 3.1635.1271 6.3193-.3981 9.2711-1.543 2.9518-1.1448 5.6364-2.885 7.8869-5.1119 2.2503-2.2271 4.0184-4.8934 5.1942-7.8329 1.1757-2.9397 1.734-6.0899 1.64-9.2545.094-3.1646-.4643-6.3148-1.64-9.2545-1.1758-2.9397-2.9439-5.606-5.1942-7.8329-2.2505-2.2271-4.9351-3.9671-7.8869-5.1119-2.9518-1.1449-6.1076-1.6701-9.2711-1.5431z" fill-rule="nonzero"/><path d="m181.357 43.561c-.491-.9278-1.108-1.7829-1.833-2.5409l-.416-.4583.457-.4164c.703-.7388 1.342-1.5328 1.917-2.3743l12.204-18.2025h-14.829l-9.162 14.2455c-.387.4195-.869.7404-1.406.9359-.536.1957-1.111.2603-1.677.1887h-2.083v-26.90796c0-5.37327-3.332-6.12303-6.956-6.12303h-6.29v63.52119h13.121v-19.0355h1.249c1.5 0 2.5 0 3 .9996l7.248 13.7038c.664 1.459 1.792 2.6579 3.209 3.4108 1.415.753 3.04 1.0183 4.621.7547h10.08l-7.497-12.496-4.957-9.4553"/><path d="m245.128 18.5267c-2.482-.0596-4.949.3985-7.244 1.3452-2.294.9465-4.367 2.361-6.085 4.1532l-.792.9162-.291-1.0829c-.43-1.3672-1.332-2.537-2.547-3.3-1.212-.7631-2.657-1.0697-4.076-.8654h-5.915v45.8186h13.038v-21.2432c-.023-1.8658.257-3.7229.832-5.4982.616-2.3315 2-4.3878 3.925-5.8385 1.927-1.4505 4.286-2.211 6.696-2.1588 4.167 0 5.667 2.1659 5.667 7.7058v19.7852c-.15.9477-.074 1.9171.222 2.8296.297.9123.806 1.7415 1.484 2.4199.677.6783 1.508 1.1866 2.42 1.4833.912.2965 1.882.373 2.829.2234h6.206v-29.1573c0-11.5796-5.623-17.7027-16.328-17.7027"/><path d="m203.809 19.5685h-6.164v45.8601h12.995v-38.904c.147-.9397.071-1.9005-.221-2.8055-.293-.9049-.793-1.7287-1.462-2.4051-.668-.6764-1.485-1.1867-2.387-1.4899-.901-.3031-1.861-.3907-2.803-.2556"/><g fill-rule="nonzero"><path d="m122.627 55.0139c-1.566-.0387-3.107-.3993-4.528-1.0596s-2.691-1.606-3.73-2.7783c-1.039-1.1722-1.826-2.5458-2.312-4.0353-.485-1.4897-.658-3.0633-.509-4.6228-.218-1.591-.093-3.2103.367-4.7488.46-1.5386 1.244-2.9608 2.3-4.171 1.055-1.2101 2.358-2.1802 3.82-2.8448 1.462-.6648 3.049-1.0087 4.655-1.0087s3.193.3439 4.655 1.0087c1.462.6646 2.764 1.6347 3.82 2.8448 1.055 1.2102 1.84 2.6324 2.3 4.171.46 1.5385.585 3.1578.367 4.7488.163 1.5724-.005 3.1613-.493 4.6649-.488 1.5035-1.286 2.8883-2.341 4.0652s-2.345 2.1199-3.787 2.7686c-1.442.6485-3.003.9882-4.584.9973zm0-36.405c-3.158-.1216-6.307.4082-9.252 1.556-2.945 1.148-5.622 2.8897-7.864 5.1168-2.243 2.2269-4.003 4.8917-5.172 7.8282-1.1684 2.9367-1.7201 6.0824-1.6206 9.2414-.0995 3.159.4522 6.3046 1.6206 9.2412 1.169 2.9367 2.929 5.6015 5.172 7.8284 2.242 2.2271 4.919 3.9688 7.864 5.1166 2.945 1.148 6.094 1.6777 9.252 1.5561 3.164.1271 6.32-.3981 9.272-1.543 2.951-1.1448 5.636-2.885 7.886-5.1119 2.251-2.2271 4.019-4.8934 5.195-7.8329 1.175-2.9397 1.734-6.0899 1.64-9.2545.094-3.1646-.465-6.3148-1.64-9.2545-1.176-2.9397-2.944-5.606-5.195-7.8329-2.25-2.2271-4.935-3.9671-7.886-5.1119-2.952-1.1449-6.108-1.6701-9.272-1.5431z"/><path d="m402.369 55.0139c-1.566-.0387-3.108-.3993-4.528-1.0596-1.422-.6603-2.691-1.606-3.731-2.7783-1.038-1.1722-1.825-2.5458-2.31-4.0353-.487-1.4897-.66-3.0633-.51-4.6228-.22-1.591-.093-3.2103.367-4.7488.46-1.5386 1.244-2.9608 2.299-4.171 1.056-1.2101 2.358-2.1802 3.82-2.8448 1.462-.6648 3.05-1.0087 4.655-1.0087 1.606 0 3.194.3439 4.656 1.0087 1.462.6646 2.764 1.6347 3.819 2.8448 1.056 1.2102 1.84 2.6324 2.301 4.171.46 1.5385.584 3.1578.367 4.7488.162 1.5724-.005 3.1613-.494 4.6649-.488 1.5035-1.285 2.8882-2.34 4.0652-1.057 1.1769-2.346 2.1199-3.788 2.7686-1.441.6485-3.003.9882-4.583.9973zm0-36.405c-3.159-.1216-6.307.4082-9.252 1.556-2.945 1.148-5.621 2.8897-7.866 5.1168-2.242 2.2269-4.001 4.8917-5.171 7.8282-1.167 2.9367-1.719 6.0824-1.619 9.2414 0 6.352 2.523 12.444 7.015 16.9355 4.491 4.4917 10.583 7.015 16.935 7.015s12.443-2.5233 16.935-7.015c4.492-4.4915 7.015-10.5835 7.015-16.9355.095-3.1646-.463-6.3148-1.64-9.2545-1.176-2.9397-2.943-5.606-5.194-7.8329-2.251-2.2271-4.935-3.9671-7.887-5.1119-2.952-1.1449-6.108-1.6701-9.271-1.5431z"/><path d="m288.99 53.0147c-7.122 0-9.663-6.248-9.663-12.0794 0-2.5826.666-10.9548 8.997-10.9548 4.166 0 9.664 1.208 9.664 11.4129 0 10.205-4.874 11.663-8.998 11.663zm15.746-33.5726c-1.062-.0826-2.125.1354-3.069.6289-.941.4937-1.727 1.2429-2.264 2.162l-.373.7081-.627-.5415c-3.347-2.8208-7.619-4.3043-11.995-4.1653-12.204 0-20.41 9.1636-20.41 22.8259s8.331 23.2008 20.826 23.2008c3.583.1645 7.118-.8767 10.039-2.9574l.999-.7497v1.2912c0 6.1231-3.957 9.497-11.121 9.497-3-.0365-5.974-.586-8.789-1.6246-.525-.2601-1.103-.3977-1.69-.4018-.588-.0042-1.168.1249-1.696.3777-.53.2527-.995.6225-1.36 1.0813-.367.4586-.623.9945-.751 1.5671l-1.042 2.5825-1.458 3.7487.917.4998c4.938 2.5319 10.402 3.8728 15.952 3.9155 11.123 0 24.076-5.7065 24.076-21.743v-41.9032z"/><path d="m22.7842 54.5146h-10.6215v-12.9125c0-2.7074 1.0414-4.1654 3.3739-4.4569h7.2476c1.1269-.0563 2.2528.1277 3.303.5398 1.0503.412 2.0008 1.0427 2.7887 1.8504.7879.8074 1.3949 1.7734 1.7809 2.8335.3861 1.06.5422 2.1902.4581 3.3151.1037 1.1333-.0383 2.2756-.4161 3.349-.3779 1.0735-.9829 2.0527-1.7736 2.871-.7906.8184-1.7486 1.4566-2.8083 1.8712-1.0598.4147-2.1965.5957-3.3327.5311zm-10.6215-34.3223v-3.3322c0-2.9157 1.2496-4.1653 3.9571-4.4986h5.4149c1.0146-.1156 2.0424-.0037 3.0083.3276.966.3313 1.8459.8737 2.5759 1.5878.7301.7141 1.2919 1.5819 1.6444 2.5404.3526.9583.4872 1.9832.394 3.0001.0914 1.0135-.0367 2.0347-.3756 2.9942-.3387.9595-.8804 1.8347-1.588 2.566-.7075.7314-1.5645 1.3015-2.5121 1.6717-.9479.3703-1.9643.5319-2.9803.4739h-9.5386zm24.2006 12.4961-1.9161-1.0831 1.6661-1.4161c1.6694-1.4709 2.9995-3.2867 3.8983-5.3219.899-2.0353 1.3454-4.2414 1.3083-6.466 0-10.12176-7.7475-16.45306-19.702-16.45306h-15.2033c-1.71669.0644-3.34221.7892-4.53737 2.02317-1.195187 1.23399-1.8677005 2.88183-1.87723 4.59969v56.6483h21.9096c13.2874 0 21.868-7.2477 21.868-18.494.1069-2.7611-.5283-5.5003-1.8396-7.9326-1.3113-2.4322-3.2508-4.4682-5.6164-5.8963z"/></g><path d="m484.635 18.6922c-2.684.0189-5.332.6385-7.745 1.8132-2.416 1.175-4.537 2.8751-6.208 4.9763l-.959 1.208-.749-1.3329c-1.216-2.2004-3.043-4.0012-5.26-5.1841-2.218-1.1829-4.731-1.6972-7.236-1.4805-2.269.035-4.509.5333-6.578 1.4646-2.07.931-3.927 2.2754-5.461 3.9503l-1.249 1.3329-.458-1.7493c-.427-1.304-1.299-2.4157-2.465-3.1394-1.166-.7238-2.55-1.0133-3.907-.8178h-5.499v45.8186h12.495v-20.2852c.01-1.7973.233-3.5874.668-5.3316 1.208-4.8734 4.457-10.1217 9.955-9.5802 3.374.3332 5.04 2.9573 5.04 7.9973v27.0746h12.495v-20.1601c-.043-1.858.196-3.7118.71-5.4982.308-2.4373 1.438-4.6968 3.202-6.4073 1.764-1.7106 4.057-2.7707 6.502-3.0063 3.832 0 5.249 2.166 5.249 8.039v20.4102c0 4.6234 2.04 6.6644 6.664 6.6644h5.999v-29.1571c0-11.663-5.125-17.5778-15.205-17.5778"/><path d="m371.256 49.5581c-3.321 3.3748-7.771 5.4065-12.497 5.7065-1.721.1201-3.449-.1266-5.068-.7233-1.62-.5966-3.093-1.5302-4.326-2.7387-1.232-1.2084-2.194-2.6644-2.822-4.2719s-.907-3.3299-.821-5.0537c-.124-1.6938.11-3.395.688-4.9921.578-1.5974 1.487-3.0547 2.666-4.2771 1.178-1.2224 2.603-2.1826 4.178-2.8175 1.575-.6348 3.267-.9305 4.963-.8674 2.334 0 4.999.8331 5.416 2.2493v.25c.267.9753.848 1.8351 1.654 2.4454.806.6101 1.792.9367 2.802.9284h6.791v-5.9563c0-7.8725-9.997-10.7465-16.663-10.7465-3.241-.1956-6.486.2807-9.536 1.3988-3.048 1.1179-5.832 2.8538-8.18 5.0985-2.345 2.2447-4.204 4.95-5.455 7.9462-1.252 2.9962-1.872 6.2186-1.82 9.4654-.078 3.2254.51 6.4324 1.727 9.4205 1.218 2.9878 3.038 5.6923 5.349 7.9443 2.311 2.2518 5.061 4.0028 8.08 5.1432 3.018 1.1404 6.239 1.6457 9.462 1.4842 3.598.0228 7.161-.7066 10.46-2.1412 3.299-1.4345 6.262-3.5427 8.699-6.1895l.375-.4581-5.415-8.9971z"/></g></svg>

<?xml version="1.0" encoding="UTF-8"?>
<svg width="500px" height="84px" viewBox="0 0 500 84" version="1.1" xmlns="http://www.w3.org/2000/svg" xmlns:xlink="http://www.w3.org/1999/xlink">
    <!-- Generator: Sketch 52.6 (67491) - http://www.bohemiancoding.com/sketch -->
    <title>logo_booking</title>
    <desc>Created with Sketch.</desc>
    <g id="Page-1" stroke="none" stroke-width="1" fill="none" fill-rule="evenodd">
        <g id="logo_booking" fill="#FFFFFF">
            <path d="M196.059,7.5717 C196.067,6.07415 196.519,4.61258 197.358,3.37141 C198.195,2.13023 199.383,1.16505 200.768,0.59765 C202.153,0.0302523 203.677,-0.113944 205.145,0.183253 C206.612,0.48045 207.959,1.20572 209.015,2.26757 C210.072,3.32941 210.79,4.68026 211.079,6.14964 C211.368,7.61905 211.215,9.14117 210.64,10.524 C210.065,11.9068 209.093,13.0883 207.848,13.9195 C206.602,14.7506 205.138,15.1942 203.64,15.1942 C201.625,15.1832 199.698,14.3753 198.276,12.947 C196.856,11.5187 196.059,9.58612 196.059,7.5717 Z" id="Path"></path>
            <path d="M315.939,58.262 C315.948,56.7643 316.4,55.3028 317.238,54.0616 C318.076,52.8204 319.263,51.8553 320.649,51.2879 C322.034,50.7204 323.557,50.5762 325.026,50.8734 C326.493,51.1706 327.84,51.896 328.896,52.9578 C329.953,54.0196 330.67,55.3704 330.959,56.8399 C331.248,58.3093 331.096,59.8314 330.521,61.2141 C329.946,62.597 328.974,63.7786 327.728,64.6096 C326.483,65.4409 325.019,65.8844 323.521,65.8844 C321.506,65.8734 319.579,65.0655 318.157,63.6372 C316.737,62.2088 315.939,60.2764 315.939,58.262 Z" id="Path"></path>
            <path d="M71.3923,55.0139 C69.826,54.9752 68.2845,54.6146 66.8637,53.9543 C65.4432,53.294 64.1734,52.3483 63.134,51.176 C62.0946,50.0038 61.3078,48.6302 60.8224,47.1407 C60.337,45.651 60.1634,44.0774 60.3126,42.5179 C60.1468,40.9556 60.3116,39.3759 60.796,37.8814 C61.2805,36.3867 62.0737,35.0108 63.1245,33.8428 C64.1752,32.6747 65.4599,31.7407 66.895,31.1013 C68.33,30.4619 69.8837,30.1315 71.4548,30.1315 C73.0259,30.1315 74.5794,30.4619 76.0146,31.1013 C77.4496,31.7407 78.7342,32.6747 79.785,33.8428 C80.8357,35.0108 81.629,36.3867 82.1134,37.8814 C82.598,39.3759 82.7626,40.9556 82.597,42.5179 C82.7598,44.0903 82.5917,45.6792 82.1035,47.1828 C81.6154,48.6863 80.8181,50.0711 79.7628,51.248 C78.7074,52.4249 77.4176,53.3679 75.9759,54.0166 C74.5343,54.6651 72.9731,55.0048 71.3923,55.0139 Z M71.3923,18.6089 C68.2375,18.4931 65.0925,19.0272 62.1528,20.1777 C59.2131,21.3284 56.5412,23.0709 54.303,25.2973 C52.0649,27.5237 50.3083,30.1865 49.1423,33.1202 C47.9764,36.0538 47.4259,39.196 47.525,42.3513 C47.4259,45.5066 47.9764,48.6486 49.1423,51.5824 C50.3083,54.5161 52.0649,57.1789 54.303,59.4053 C56.5412,61.6317 59.2131,63.3742 62.1528,64.5247 C65.0925,65.6754 68.2375,66.2093 71.3923,66.0936 C74.5558,66.2207 77.7116,65.6955 80.6634,64.5506 C83.6152,63.4058 86.2998,61.6656 88.5503,59.4387 C90.8006,57.2116 92.5687,54.5453 93.7445,51.6058 C94.9202,48.6661 95.4785,45.5159 95.3845,42.3513 C95.4785,39.1867 94.9202,36.0365 93.7445,33.0968 C92.5687,30.1571 90.8006,27.4908 88.5503,25.2639 C86.2998,23.0368 83.6152,21.2968 80.6634,20.152 C77.7116,19.0071 74.5558,18.4819 71.3923,18.6089 Z" id="Shape" fill-rule="nonzero"></path>
            <path d="M181.357,43.561 C180.866,42.6332 180.249,41.7781 179.524,41.0201 L179.108,40.5618 L179.565,40.1454 C180.268,39.4066 180.907,38.6126 181.482,37.7711 L193.686,19.5686 L178.857,19.5686 L169.695,33.8141 C169.308,34.2336 168.826,34.5545 168.289,34.75 C167.753,34.9457 167.178,35.0103 166.612,34.9387 L164.529,34.9387 L164.529,8.03074 C164.529,2.65747 161.197,1.90771 157.573,1.90771 L151.283,1.90771 L151.283,65.4289 L164.404,65.4289 L164.404,46.3934 L165.653,46.3934 C167.153,46.3934 168.153,46.3934 168.653,47.393 L175.901,61.0968 C176.565,62.5558 177.693,63.7547 179.11,64.5076 C180.525,65.2606 182.15,65.5259 183.731,65.2623 L193.811,65.2623 L186.314,52.7663 L181.357,43.311" id="Path"></path>
            <path d="M245.128,18.5267 C242.646,18.4671 240.179,18.9252 237.884,19.8719 C235.59,20.8184 233.517,22.2329 231.799,24.0251 L231.007,24.9413 L230.716,23.8584 C230.286,22.4912 229.384,21.3214 228.169,20.5584 C226.957,19.7953 225.512,19.4887 224.093,19.693 L218.178,19.693 L218.178,65.5116 L231.216,65.5116 L231.216,44.2684 C231.193,42.4026 231.473,40.5455 232.048,38.7702 C232.664,36.4387 234.048,34.3824 235.973,32.9317 C237.9,31.4812 240.259,30.7207 242.669,30.7729 C246.836,30.7729 248.336,32.9388 248.336,38.4787 L248.336,58.2639 C248.186,59.2116 248.262,60.181 248.558,61.0935 C248.855,62.0058 249.364,62.835 250.042,63.5134 C250.719,64.1917 251.55,64.7 252.462,64.9967 C253.374,65.2932 254.344,65.3697 255.291,65.2201 L261.497,65.2201 L261.497,36.0628 C261.497,24.4832 255.874,18.3601 245.169,18.3601" id="Path"></path>
            <path d="M203.809,19.5685 L197.645,19.5685 L197.645,65.4286 L210.64,65.4286 L210.64,26.5246 C210.787,25.5849 210.711,24.6241 210.419,23.7191 C210.126,22.8142 209.626,21.9904 208.957,21.314 C208.289,20.6376 207.472,20.1273 206.57,19.8241 C205.669,19.521 204.709,19.4334 203.767,19.5685" id="Path"></path>
            <path d="M122.627,55.0139 C121.061,54.9752 119.52,54.6146 118.099,53.9543 C116.678,53.294 115.408,52.3483 114.369,51.176 C113.33,50.0038 112.543,48.6302 112.057,47.1407 C111.572,45.651 111.399,44.0774 111.548,42.5179 C111.33,40.9269 111.455,39.3076 111.915,37.7691 C112.375,36.2305 113.159,34.8083 114.215,33.5981 C115.27,32.388 116.573,31.4179 118.035,30.7533 C119.497,30.0885 121.084,29.7446 122.69,29.7446 C124.296,29.7446 125.883,30.0885 127.345,30.7533 C128.807,31.4179 130.109,32.388 131.165,33.5981 C132.22,34.8083 133.005,36.2305 133.465,37.7691 C133.925,39.3076 134.05,40.9269 133.832,42.5179 C133.995,44.0903 133.827,45.6792 133.339,47.1828 C132.851,48.6863 132.053,50.0711 130.998,51.248 C129.943,52.4249 128.653,53.3679 127.211,54.0166 C125.769,54.6651 124.208,55.0048 122.627,55.0139 Z M122.627,18.6089 C119.469,18.4873 116.32,19.0171 113.375,20.1649 C110.43,21.3129 107.753,23.0546 105.511,25.2817 C103.268,27.5086 101.508,30.1734 100.339,33.1099 C99.1706,36.0466 98.6189,39.1923 98.7184,42.3513 C98.6189,45.5103 99.1706,48.6559 100.339,51.5925 C101.508,54.5292 103.268,57.194 105.511,59.4209 C107.753,61.648 110.43,63.3897 113.375,64.5375 C116.32,65.6855 119.469,66.2152 122.627,66.0936 C125.791,66.2207 128.947,65.6955 131.899,64.5506 C134.85,63.4058 137.535,61.6656 139.785,59.4387 C142.036,57.2116 143.804,54.5453 144.98,51.6058 C146.155,48.6661 146.714,45.5159 146.62,42.3513 C146.714,39.1867 146.155,36.0365 144.98,33.0968 C143.804,30.1571 142.036,27.4908 139.785,25.2639 C137.535,23.0368 134.85,21.2968 131.899,20.152 C128.947,19.0071 125.791,18.4819 122.627,18.6089 Z" id="Shape" fill-rule="nonzero"></path>
            <path d="M402.369,55.0139 C400.803,54.9752 399.261,54.6146 397.841,53.9543 C396.419,53.294 395.15,52.3483 394.11,51.176 C393.072,50.0038 392.285,48.6302 391.8,47.1407 C391.313,45.651 391.14,44.0774 391.29,42.5179 C391.07,40.9269 391.197,39.3076 391.657,37.7691 C392.117,36.2305 392.901,34.8083 393.956,33.5981 C395.012,32.388 396.314,31.4179 397.776,30.7533 C399.238,30.0885 400.826,29.7446 402.431,29.7446 C404.037,29.7446 405.625,30.0885 407.087,30.7533 C408.549,31.4179 409.851,32.388 410.906,33.5981 C411.962,34.8083 412.746,36.2305 413.207,37.7691 C413.667,39.3076 413.791,40.9269 413.574,42.5179 C413.736,44.0903 413.569,45.6792 413.08,47.1828 C412.592,48.6863 411.795,50.071 410.74,51.248 C409.683,52.4249 408.394,53.3679 406.952,54.0166 C405.511,54.6651 403.949,55.0048 402.369,55.0139 Z M402.369,18.6089 C399.21,18.4873 396.062,19.0171 393.117,20.1649 C390.172,21.3129 387.496,23.0546 385.251,25.2817 C383.009,27.5086 381.25,30.1734 380.08,33.1099 C378.913,36.0466 378.361,39.1923 378.461,42.3513 C378.461,48.7033 380.984,54.7953 385.476,59.2868 C389.967,63.7785 396.059,66.3018 402.411,66.3018 C408.763,66.3018 414.854,63.7785 419.346,59.2868 C423.838,54.7953 426.361,48.7033 426.361,42.3513 C426.456,39.1867 425.898,36.0365 424.721,33.0968 C423.545,30.1571 421.778,27.4908 419.527,25.2639 C417.276,23.0368 414.592,21.2968 411.64,20.152 C408.688,19.0071 405.532,18.4819 402.369,18.6089 Z" id="Shape" fill-rule="nonzero"></path>
            <path d="M288.99,53.0147 C281.868,53.0147 279.327,46.7667 279.327,40.9353 C279.327,38.3527 279.993,29.9805 288.324,29.9805 C292.49,29.9805 297.988,31.1885 297.988,41.3934 C297.988,51.5984 293.114,53.0564 288.99,53.0564 L288.99,53.0147 Z M304.736,19.4421 C303.674,19.3595 302.611,19.5775 301.667,20.071 C300.726,20.5647 299.94,21.3139 299.403,22.233 L299.03,22.9411 L298.403,22.3996 C295.056,19.5788 290.784,18.0953 286.408,18.2343 C274.204,18.2343 265.998,27.3979 265.998,41.0602 C265.998,54.7225 274.329,64.261 286.824,64.261 C290.407,64.4255 293.942,63.3843 296.863,61.3036 L297.862,60.5539 L297.862,61.8451 C297.862,67.9682 293.905,71.3421 286.741,71.3421 C283.741,71.3056 280.767,70.7561 277.952,69.7175 C277.427,69.4574 276.849,69.3198 276.262,69.3157 C275.674,69.3115 275.094,69.4406 274.566,69.6934 C274.036,69.9461 273.571,70.3159 273.206,70.7747 C272.839,71.2333 272.583,71.7692 272.455,72.3418 L271.413,74.9243 L269.955,78.673 L270.872,79.1728 C275.81,81.7047 281.274,83.0456 286.824,83.0883 C297.947,83.0883 310.9,77.3818 310.9,61.3453 L310.9,19.4421 L304.736,19.4421 Z" id="Shape" fill-rule="nonzero"></path>
            <path d="M22.7842,54.5146 L12.1627,54.5146 L12.1627,41.6021 C12.1627,38.8947 13.2041,37.4367 15.5366,37.1452 L22.7842,37.1452 C23.9111,37.0889 25.037,37.2729 26.0872,37.685 C27.1375,38.097 28.088,38.7277 28.8759,39.5354 C29.6638,40.3428 30.2708,41.3088 30.6568,42.3689 C31.0429,43.4289 31.199,44.5591 31.1149,45.684 C31.2186,46.8173 31.0766,47.9596 30.6988,49.033 C30.3209,50.1065 29.7159,51.0857 28.9252,51.904 C28.1346,52.7224 27.1766,53.3606 26.1169,53.7752 C25.0571,54.1899 23.9204,54.3709 22.7842,54.3063 L22.7842,54.5146 Z M12.1627,20.1923 L12.1627,16.8601 C12.1627,13.9444 13.4123,12.6948 16.1198,12.3615 L21.5347,12.3615 C22.5493,12.2459 23.5771,12.3578 24.543,12.6891 C25.509,13.0204 26.3889,13.5628 27.1189,14.2769 C27.849,14.991 28.4108,15.8588 28.7633,16.8173 C29.1159,17.7756 29.2505,18.8005 29.1573,19.8174 C29.2487,20.8309 29.1206,21.8521 28.7817,22.8116 C28.443,23.7711 27.9013,24.6463 27.1937,25.3776 C26.4862,26.109 25.6292,26.6791 24.6816,27.0493 C23.7337,27.4196 22.7173,27.5812 21.7013,27.5232 L12.1627,27.5232 L12.1627,20.1923 Z M36.3633,32.6884 L34.4472,31.6053 L36.1133,30.1892 C37.7827,28.7183 39.1128,26.9025 40.0116,24.8673 C40.9106,22.832 41.357,20.6259 41.3199,18.4013 C41.3199,8.27954 33.5724,1.94824 21.6179,1.94824 L6.4146,1.94824 C4.69791,2.01264 3.07239,2.73744 1.87723,3.97141 C0.682043,5.2054 0.0095295,6.85324 0,8.5711 L0,65.2194 L21.9096,65.2194 C35.197,65.2194 43.7776,57.9717 43.7776,46.7254 C43.8845,43.9643 43.2493,41.2251 41.938,38.7928 C40.6267,36.3606 38.6872,34.3246 36.3216,32.8965 L36.3633,32.6884 Z" id="Shape" fill-rule="nonzero"></path>
            <path d="M484.635,18.6922 C481.951,18.7111 479.303,19.3307 476.89,20.5054 C474.474,21.6804 472.353,23.3805 470.682,25.4817 L469.723,26.6897 L468.974,25.3568 C467.758,23.1564 465.931,21.3556 463.714,20.1727 C461.496,18.9898 458.983,18.4755 456.478,18.6922 C454.209,18.7272 451.969,19.2255 449.9,20.1568 C447.83,21.0878 445.973,22.4322 444.439,24.1071 L443.19,25.44 L442.732,23.6907 C442.305,22.3867 441.433,21.275 440.267,20.5513 C439.101,19.8275 437.717,19.538 436.36,19.7335 L430.861,19.7335 L430.861,65.5521 L443.356,65.5521 L443.356,45.2669 C443.366,43.4696 443.589,41.6795 444.024,39.9353 C445.232,35.0619 448.481,29.8136 453.979,30.3551 C457.353,30.6883 459.019,33.3124 459.019,38.3524 L459.019,65.427 L471.514,65.427 L471.514,45.2669 C471.471,43.4089 471.71,41.5551 472.224,39.7687 C472.532,37.3314 473.662,35.0719 475.426,33.3614 C477.19,31.6508 479.483,30.5907 481.928,30.3551 C485.76,30.3551 487.177,32.5211 487.177,38.3941 L487.177,58.8043 C487.177,63.4277 489.217,65.4687 493.841,65.4687 L499.84,65.4687 L499.84,36.3116 C499.84,24.6486 494.715,18.7338 484.635,18.7338" id="Path"></path>
            <path d="M371.256,49.5581 C367.935,52.9329 363.485,54.9646 358.759,55.2646 C357.038,55.3847 355.31,55.138 353.691,54.5413 C352.071,53.9447 350.598,53.0111 349.365,51.8026 C348.133,50.5942 347.171,49.1382 346.543,47.5307 C345.915,45.9232 345.636,44.2008 345.722,42.477 C345.598,40.7832 345.832,39.082 346.41,37.4849 C346.988,35.8875 347.897,34.4302 349.076,33.2078 C350.254,31.9854 351.679,31.0252 353.254,30.3903 C354.829,29.7555 356.521,29.4598 358.217,29.5229 C360.551,29.5229 363.216,30.356 363.633,31.7722 L363.633,32.0222 C363.9,32.9975 364.481,33.8573 365.287,34.4676 C366.093,35.0777 367.079,35.4043 368.089,35.396 L374.88,35.396 L374.88,29.4397 C374.88,21.5672 364.883,18.6932 358.217,18.6932 C354.976,18.4976 351.731,18.9739 348.681,20.092 C345.633,21.2099 342.849,22.9458 340.501,25.1905 C338.156,27.4352 336.297,30.1405 335.046,33.1367 C333.794,36.1329 333.174,39.3553 333.226,42.6021 C333.148,45.8275 333.736,49.0345 334.953,52.0226 C336.171,55.0104 337.991,57.7149 340.302,59.9669 C342.613,62.2187 345.363,63.9697 348.382,65.1101 C351.4,66.2505 354.621,66.7558 357.844,66.5943 C361.442,66.6171 365.005,65.8877 368.304,64.4531 C371.603,63.0186 374.566,60.9104 377.003,58.2636 L377.378,57.8055 L371.963,48.8084 L371.256,49.5581 Z" id="Path"></path>
        </g>
    </g>
</svg>
